symbols/web/library_books/materialsymbolssharp/library_books_wght100grad200fill1_20px.svg

<svg xmlns="http://www.w3.org/2000/svg" height="20" width="20"><path d="M8.938 8.75h5v-1h-5Zm0 2.958h2.916v-1H8.938Zm0-5.916h5v-1h-5Zm-3.584 8.583V2.125h12.25v12.25Zm-2.958 2.958V5.75h1.208v10.375h10.375v1.208Z"/></svg>

<svg xmlns="http://www.w3.org/2000/svg" height="20" width="20"><path d="M8.938 8.75H13.938V7.75H8.938ZM8.938 11.708H11.854V10.708H8.938ZM8.938 5.792H13.938V4.792H8.938ZM5.354 14.375V2.125H17.604V14.375ZM2.396 17.333V5.75H3.604V16.125H13.979V17.333Z"/></svg>
